svgs/1F47C-1F3FE.svg

<svg xmlns="http://www.w3.org/2000/svg" xmlns:xlink="http://www.w3.org/1999/xlink" preserveAspectRatio="none" viewBox="0 0 72 72"><defs><path id="a" fill="#E0E0E0" d="M55.95 47.45q-2-1.25-4.15-.75-2.15.5-3.5 2.4-.55.85-2.15 4-1.85 3.6-2.55 4.75-.8 1.35-3.65 4.8-1.9 2.3-1.7 3.35.2 1 .8 1.65.75.8 2.3 1.35 1.9.55 4.45.35 2.8-.25 4-1.25.5-.55 0-1.4l-.6-.75q2 .35 4.5-.1 2.85-.45 3.4-1.5.25-.45-.3-1.1-.45-.5-.85-.75 7.45-.4 8.2-2.45.35-1.05-1.4-1.95 2.55-.3 3.85-.65 2.5-.7 3.55-2.05.5-.55.6-1.25.1-.8-.3-1.35-.4-.6-1.3-.85-.45-.15-1.6-.25-2.85-.25-5.25-1.1-2.95-1-6.35-3.15z"/><path id="b" fill="#B0BEC5" d="M43.85 20.5q-.08-.015-.15-.05-4.05 0-9.85-1.3-3.75-.85-5.8-1.55.75.65 3.55 1.9 2.2 1 3.75 1.55 5.079 1.66 10.55 1.3-.576-.938-2.3-1.8.12-.014.25-.05z"/><path id="c" fill="#B0BEC5" d="M32.05 28.1q-3.3.15-7.2-1.15-5.2-2-5.6-2.2 4.15 3 6.1 3.8 2.995 1.1 5.55 1.35.599-.108 1.1-.25.404-.115.75-.25-.627-.744-1.25-1.1.369-.02.7-.05-.112-.125-.15-.15z"/><path id="d" fill="#B0BEC5" d="M19.95 34.45q-.054-.077-.1-.15-4-.65-8.8-2.3 3 2.1 4.5 2.6 3.239 1.02 5.05 1.25-.019-.048-.05-.1L19.5 34.4q.23.04.45.05z"/><path id="e" fill="#E0E0E0" d="M55.95 47.45q-2-1.25-4.15-.75-2.15.5-3.5 2.4-.55.85-2.15 4-1.85 3.6-2.55 4.75-.8 1.35-3.65 4.8-1.9 2.3-1.7 3.35.2 1 .8 1.65.75.8 2.3 1.35 1.9.55 4.45.35 2.8-.25 4-1.25.5-.55 0-1.4l-.6-.75q2 .35 4.5-.1 2.85-.45 3.4-1.5.25-.45-.3-1.1-.45-.5-.85-.75 7.45-.4 8.2-2.45.35-1.05-1.4-1.95 2.55-.3 3.85-.65 2.5-.7 3.55-2.05.5-.55.6-1.25.1-.8-.3-1.35-.4-.6-1.3-.85-.45-.15-1.6-.25-2.85-.25-5.25-1.1-2.95-1-6.35-3.15z"/><path id="f" fill="#7A4C32" d="M111.4 66.55h-4.05V89.3q5.35 0 8.85-2.7 4-3.15 4-9 0-5.95-4.4-9.1-1.35-.95-3-1.55l-1.4-.4z"/><path id="g" fill="#7A4C32" d="M20.6 66.55h-4.05q-.55.1-1.35.4-1.65.6-3.05 1.55-4.4 3.15-4.4 9.1 0 5.85 4.05 9 3.45 2.7 8.8 2.7V66.55z"/><path id="h" fill="#AD6F43" d="M56.5 23.1q-3.6-5.3-8.6-7.55-4.7-2.15-11.8-2.15-7.1 0-11.8 2.15-5 2.3-8.55 7.55-2.6 3.85-3.45 9.85-.8 5.65.05 12.35.85 6.45 2.55 10.3 1.9 4.25 5.7 7.6 6.15 5.35 15.15 5.35h.7q9 0 15.15-5.35 3.8-3.35 5.7-7.6 1.7-3.85 2.5-10.3.85-6.7.1-12.35-.8-6-3.4-9.85z"/><path id="i" fill="#513F35" d="M77 97.15q-.35-.65-1.45-.65H52.4q-1 0-1.3.65-.35.65.3 1.55 1.2 1.85 4.2 3.45 3.85 2.05 8.45 2.05t8.45-2.05q3-1.55 4.25-3.45.55-.95.25-1.55z"/><path id="j" fill="#7A4C32" d="M39.15 53.05q.15-.25 0-.45-.1-.2-.4-.1-1.35.4-2.65.4-1.3 0-2.65-.4-.3-.1-.4.1-.15.2 0 .45.25.5 1 .95 1 .6 2.05.6 1.05 0 2-.6.8-.45 1.05-.95z"/><path id="k" fill="#47352D" d="M75.65 8.5Q68.8 4.35 61.4 5.55q-5.35.9-9.7 4.35-3.65 2.95-4.4 5.55 5.65-1.4 11.9-1.75 4.75-.3 7.95 2.05 3.35 2.45 3.15 6.4-.35 7.65-7.8 8.6-6.6.85-11.1-3.1-.5-.45-1.1-.1-.6.3-.55.95.25 2.5 1.8 4.85 1.75 2.75 4.95 4.75 2.75 1.7 7.2 1.85 4.65.15 8.95-1.6Q83.5 34 83.5 22.05q0-8.85-7.85-13.55z"/><path id="l" fill="#444" d="M40.15 72.35q-1.7 2-1.7 4.85 0 2.9 1.7 4.9 1.65 2 4.05 2 2.35 0 4.05-2 1.65-2.05 1.65-4.9 0-2.85-1.65-4.85-1.7-2.05-4.05-2.05-2.4 0-4.05 2.05z"/><path id="m" fill="#444" d="M87.85 72.35q-1.7-2.05-4.05-2.05-2.4 0-4.05 2.05-1.7 2-1.7 4.85 0 2.85 1.7 4.9 1.65 2 4.05 2 2.35 0 4.05-2 1.65-2 1.65-4.9 0-2.85-1.65-4.85z"/><path id="n" fill="#40C0E7" d="M120.3 21q0-8.7-16.55-14.85T63.75 0Q40.35 0 23.8 6.15 7.25 12.3 7.25 21q0 8.75 16.55 14.85Q40.35 42 63.75 42q23.45 0 40-6.15Q120.3 29.75 120.3 21m-24.55-3.6q0 3.55-9.35 6-9.4 2.5-22.65 2.5-13.25 0-22.6-2.5-9.4-2.5-9.4-6 0-3.55 9.4-6.05 9.35-2.5 22.6-2.5 13.25 0 22.65 2.5 9.35 2.5 9.35 6.05z"/><path id="o" fill="#47352D" d="M46.05 17.75q0-4.5-4-6.9-2.24-1.377-4.6-1.6l-1.8 4.35q1.16.283 2.05.95 1.7 1.25 1.6 3.25-.15 3.9-3.95 4.4-3.35.4-5.65-1.6-.25-.25-.55-.05-.35.15-.3.5.15 1.25.9 2.45.9 1.4 2.55 2.45 1.4.85 3.65.9 2.4.1 4.55-.8 5.55-2.2 5.55-8.3z"/></defs><use transform="matrix(-1 0 0 1 72 -.05)" xlink:href="#a"/><use transform="matrix(-.5625 0 0 .5625 33.8 46.5)" xlink:href="#b"/><use transform="matrix(-.5625 0 0 .5625 33.8 46.5)" xlink:href="#c"/><use transform="matrix(-.5625 0 0 .5625 33.8 46.5)" xlink:href="#d"/><use xlink:href="#e"/><use transform="translate(38.2 46.55) scale(.5625)" xlink:href="#b"/><use transform="translate(38.2 46.55) scale(.5625)" xlink:href="#c"/><use transform="translate(38.2 46.55) scale(.5625)" xlink:href="#d"/><use transform="matrix(.5095 0 0 .50984 3.5 6.5)" xlink:href="#f"/><use transform="matrix(.5095 0 0 .50984 3.5 6.5)" xlink:href="#g"/><use xlink:href="#h"/><use transform="matrix(.5625 0 0 .7159 .1 -12)" xlink:href="#i"/><use xlink:href="#j"/><use transform="matrix(.50955 0 0 .5099 3.5 6.5)" xlink:href="#k"/><use transform="matrix(.50955 0 0 .5099 3.5 7.25)" xlink:href="#l"/><use transform="matrix(.50955 0 0 .5099 3.5 7.25)" xlink:href="#m"/><g transform="translate(6.55 2.65) scale(.4608)"><use xlink:href="#n"/></g><g><use xlink:href="#o"/></g></svg>

<svg xmlns="http://www.w3.org/2000/svg" version="1.1" xmlns:xlink="http://www.w3.org/1999/xlink" preserveAspectRatio="none" x="0px" y="0px" width="72px" height="72px" viewBox="0 0 72 72">
<defs>
<g id="Layer0_0_MEMBER_0_MEMBER_0_MEMBER_0_MEMBER_0_FILL">
<path fill="#E0E0E0" stroke="none" d="
M 55.95 47.45
Q 53.95 46.2 51.8 46.7 49.65 47.2 48.3 49.1 47.75 49.95 46.15 53.1 44.3 56.7 43.6 57.85 42.8 59.2 39.95 62.65 38.05 64.95 38.25 66 38.45 67 39.05 67.65 39.8 68.45 41.35 69 43.25 69.55 45.8 69.35 48.6 69.1 49.8 68.1 50.3 67.55 49.8 66.7
L 49.2 65.95
Q 51.2 66.3 53.7 65.85 56.55 65.4 57.1 64.35 57.35 63.9 56.8 63.25 56.35 62.75 55.95 62.5 63.4 62.1 64.15 60.05 64.5 59 62.75 58.1 65.3 57.8 66.6 57.45 69.1 56.75 70.15 55.4 70.65 54.85 70.75 54.15 70.85 53.35 70.45 52.8 70.05 52.2 69.15 51.95 68.7 51.8 67.55 51.7 64.7 51.45 62.3 50.6 59.35 49.6 55.95 47.45 Z"/>
</g>

<g id="An_1F47C_SVG_Layer_1__Clip_Group__2_0_0_Layer1_0_FILL">
<path fill="#B0BEC5" stroke="none" d="
M 43.85 20.5
Q 43.76953125 20.484765625 43.7 20.45 39.65 20.45 33.85 19.15 30.1 18.3 28.05 17.6 28.8 18.25 31.6 19.5 33.8 20.5 35.35 21.05 40.428515625 22.7103515625 45.9 22.35 45.3244140625 21.4123046875 43.6 20.55 43.719921875 20.535546875 43.85 20.5 Z"/>
</g>

<g id="An_1F47C_SVG_Layer_1__Clip_Group__1_0_0_Layer1_0_FILL">
<path fill="#B0BEC5" stroke="none" d="
M 32.05 28.1
Q 28.75 28.25 24.85 26.95 19.65 24.95 19.25 24.75 23.4 27.75 25.35 28.55 28.3447265625 29.65 30.9 29.9 31.4990234375 29.7916015625 32 29.65 32.40390625 29.5353515625 32.75 29.4 32.1234375 28.65625 31.5 28.3 31.86875 28.2791015625 32.2 28.25 32.087890625 28.1251953125 32.05 28.1 Z"/>
</g>

<g id="An_1F47C_SVG_Layer_1__Clip_Group__0_0_Layer1_0_FILL">
<path fill="#B0BEC5" stroke="none" d="
M 19.95 34.45
Q 19.895703125 34.373046875 19.85 34.3 15.85 33.65 11.05 32 14.05 34.1 15.55 34.6 18.788671875 35.6203125 20.6 35.85 20.58125 35.801953125 20.55 35.75
L 19.5 34.4
Q 19.7302734375 34.439453125 19.95 34.45 Z"/>
</g>

<g id="Layer0_0_MEMBER_0_MEMBER_1_MEMBER_0_MEMBER_0_FILL">
<path fill="#E0E0E0" stroke="none" d="
M 55.95 47.45
Q 53.95 46.2 51.8 46.7 49.65 47.2 48.3 49.1 47.75 49.95 46.15 53.1 44.3 56.7 43.6 57.85 42.8 59.2 39.95 62.65 38.05 64.95 38.25 66 38.45 67 39.05 67.65 39.8 68.45 41.35 69 43.25 69.55 45.8 69.35 48.6 69.1 49.8 68.1 50.3 67.55 49.8 66.7
L 49.2 65.95
Q 51.2 66.3 53.7 65.85 56.55 65.4 57.1 64.35 57.35 63.9 56.8 63.25 56.35 62.75 55.95 62.5 63.4 62.1 64.15 60.05 64.5 59 62.75 58.1 65.3 57.8 66.6 57.45 69.1 56.75 70.15 55.4 70.65 54.85 70.75 54.15 70.85 53.35 70.45 52.8 70.05 52.2 69.15 51.95 68.7 51.8 67.55 51.7 64.7 51.45 62.3 50.6 59.35 49.6 55.95 47.45 Z"/>
</g>

<g id="Layer0_0_MEMBER_1_MEMBER_0_MEMBER_0_MEMBER_0_FILL">
<path fill="#7A4C32" stroke="none" d="
M 111.4 66.55
L 107.35 66.55 107.35 89.3
Q 112.7 89.3 116.2 86.6 120.2 83.45 120.2 77.6 120.2 71.65 115.8 68.5 114.45 67.55 112.8 66.95
L 111.4 66.55 Z"/>
</g>

<g id="Layer0_0_MEMBER_1_MEMBER_0_MEMBER_0_MEMBER_1_FILL">
<path fill="#7A4C32" stroke="none" d="
M 20.6 66.55
L 16.55 66.55
Q 16 66.65 15.2 66.95 13.55 67.55 12.15 68.5 7.75 71.65 7.75 77.6 7.75 83.45 11.8 86.6 15.25 89.3 20.6 89.3
L 20.6 66.55 Z"/>
</g>

<g id="Layer0_0_MEMBER_1_MEMBER_0_MEMBER_1_FILL">
<path fill="#AD6F43" stroke="none" d="
M 56.5 23.1
Q 52.9 17.8 47.9 15.55 43.2 13.4 36.1 13.4 29 13.4 24.3 15.55 19.3 17.85 15.75 23.1 13.15 26.95 12.3 32.95 11.5 38.6 12.35 45.3 13.2 51.75 14.9 55.6 16.8 59.85 20.6 63.2 26.75 68.55 35.75 68.55
L 36.45 68.55
Q 45.45 68.55 51.6 63.2 55.4 59.85 57.3 55.6 59 51.75 59.8 45.3 60.65 38.6 59.9 32.95 59.1 26.95 56.5 23.1 Z"/>
</g>

<g id="Layer0_0_MEMBER_1_MEMBER_0_MEMBER_2_FILL">
<path fill="#513F35" stroke="none" d="
M 77 97.15
Q 76.65 96.5 75.55 96.5
L 52.4 96.5
Q 51.4 96.5 51.1 97.15 50.75 97.8 51.4 98.7 52.6 100.55 55.6 102.15 59.45 104.2 64.05 104.2 68.65 104.2 72.5 102.15 75.5 100.6 76.75 98.7 77.3 97.75 77 97.15 Z"/>
</g>

<g id="Layer0_0_MEMBER_1_MEMBER_0_MEMBER_3_FILL">
<path fill="#7A4C32" stroke="none" d="
M 39.15 53.05
Q 39.3 52.8 39.15 52.6 39.05 52.4 38.75 52.5 37.4 52.9 36.1 52.9 34.8 52.9 33.45 52.5 33.15 52.4 33.05 52.6 32.9 52.8 33.05 53.05 33.3 53.55 34.05 54 35.05 54.6 36.1 54.6 37.15 54.6 38.1 54 38.9 53.55 39.15 53.05 Z"/>
</g>

<g id="Layer0_0_MEMBER_1_MEMBER_0_MEMBER_4_FILL">
<path fill="#47352D" stroke="none" d="
M 75.65 8.5
Q 68.8 4.35 61.4 5.55 56.05 6.45 51.7 9.9 48.05 12.85 47.3 15.45 52.95 14.05 59.2 13.7 63.95 13.4 67.15 15.75 70.5 18.2 70.3 22.15 69.95 29.8 62.5 30.75 55.9 31.6 51.4 27.65 50.9 27.2 50.3 27.55 49.7 27.85 49.75 28.5 50 31 51.55 33.35 53.3 36.1 56.5 38.1 59.25 39.8 63.7 39.95 68.35 40.1 72.65 38.35 83.5 34 83.5 22.05 83.5 13.2 75.65 8.5 Z"/>
</g>

<g id="Layer0_0_MEMBER_1_MEMBER_0_MEMBER_5_FILL">
<path fill="#444444" stroke="none" d="
M 40.15 72.35
Q 38.45 74.35 38.45 77.2 38.45 80.1 40.15 82.1 41.8 84.1 44.2 84.1 46.55 84.1 48.25 82.1 49.9 80.05 49.9 77.2 49.9 74.35 48.25 72.35 46.55 70.3 44.2 70.3 41.8 70.3 40.15 72.35 Z"/>
</g>

<g id="Layer0_0_MEMBER_1_MEMBER_0_MEMBER_6_FILL">
<path fill="#444444" stroke="none" d="
M 87.85 72.35
Q 86.15 70.3 83.8 70.3 81.4 70.3 79.75 72.35 78.05 74.35 78.05 77.2 78.05 80.05 79.75 82.1 81.4 84.1 83.8 84.1 86.15 84.1 87.85 82.1 89.5 80.1 89.5 77.2 89.5 74.35 87.85 72.35 Z"/>
</g>

<g id="Layer0_0_MEMBER_2_FILL">
<path fill="#40C0E7" stroke="none" d="
M 120.3 21
Q 120.3 12.3 103.75 6.15 87.2 0 63.75 0 40.35 0 23.8 6.15 7.25 12.3 7.25 21 7.25 29.75 23.8 35.85 40.35 42 63.75 42 87.2 42 103.75 35.85 120.3 29.75 120.3 21
M 95.75 17.4
Q 95.75 20.95 86.4 23.4 77 25.9 63.75 25.9 50.5 25.9 41.15 23.4 31.75 20.9 31.75 17.4 31.75 13.85 41.15 11.35 50.5 8.85 63.75 8.85 77 8.85 86.4 11.35 95.75 13.85 95.75 17.4 Z"/>
</g>

<g id="Layer0_0_MEMBER_3_FILL">
<path fill="#47352D" stroke="none" d="
M 46.05 17.75
Q 46.05 13.25 42.05 10.85 39.8091796875 9.4734375 37.45 9.25
L 35.65 13.6
Q 36.8107421875 13.8830078125 37.7 14.55 39.4 15.8 39.3 17.8 39.15 21.7 35.35 22.2 32 22.6 29.7 20.6 29.45 20.35 29.15 20.55 28.8 20.7 28.85 21.05 29 22.3 29.75 23.5 30.65 24.9 32.3 25.95 33.7 26.8 35.95 26.85 38.35 26.95 40.5 26.05 46.05 23.85 46.05 17.75 Z"/>
</g>
</defs>

<g id="Layer_1">
<g transform="matrix( -1, 0, 0, 1, 72,-0.05) ">
<use xlink:href="#Layer0_0_MEMBER_0_MEMBER_0_MEMBER_0_MEMBER_0_FILL"/>
</g>

<g transform="matrix( -0.5625, 0, 0, 0.5625, 33.8,46.5) ">
<g id="Camada_1"/>

<g id="Camada_3">
<g transform="matrix( 1, 0, 0, 1, 0,0) ">
<use xlink:href="#An_1F47C_SVG_Layer_1__Clip_Group__2_0_0_Layer1_0_FILL"/>
</g>
</g>

<g id="Camada_4"/>
</g>

<g transform="matrix( -0.5625, 0, 0, 0.5625, 33.8,46.5) ">
<g transform="matrix( 1, 0, 0, 1, 0,0) ">
<use xlink:href="#An_1F47C_SVG_Layer_1__Clip_Group__1_0_0_Layer1_0_FILL"/>
</g>
</g>

<g transform="matrix( -0.5625, 0, 0, 0.5625, 33.8,46.5) ">
<g transform="matrix( 1, 0, 0, 1, 0,0) ">
<use xlink:href="#An_1F47C_SVG_Layer_1__Clip_Group__0_0_Layer1_0_FILL"/>
</g>
</g>

<g transform="matrix( 1, 0, 0, 1, 0,0) ">
<use xlink:href="#Layer0_0_MEMBER_0_MEMBER_1_MEMBER_0_MEMBER_0_FILL"/>
</g>

<g transform="matrix( 0.5625, 0, 0, 0.5625, 38.2,46.55) ">
<g transform="matrix( 1, 0, 0, 1, 0,0) ">
<use xlink:href="#An_1F47C_SVG_Layer_1__Clip_Group__2_0_0_Layer1_0_FILL"/>
</g>
</g>

<g transform="matrix( 0.5625, 0, 0, 0.5625, 38.2,46.55) ">
<g transform="matrix( 1, 0, 0, 1, 0,0) ">
<use xlink:href="#An_1F47C_SVG_Layer_1__Clip_Group__1_0_0_Layer1_0_FILL"/>
</g>
</g>

<g transform="matrix( 0.5625, 0, 0, 0.5625, 38.2,46.55) ">
<g transform="matrix( 1, 0, 0, 1, 0,0) ">
<use xlink:href="#An_1F47C_SVG_Layer_1__Clip_Group__0_0_Layer1_0_FILL"/>
</g>
</g>

<g transform="matrix( 0.5095062255859375, 0, 0, 0.5098419189453125, 3.5,6.5) ">
<use xlink:href="#Layer0_0_MEMBER_1_MEMBER_0_MEMBER_0_MEMBER_0_FILL"/>
</g>

<g transform="matrix( 0.5095062255859375, 0, 0, 0.5098419189453125, 3.5,6.5) ">
<use xlink:href="#Layer0_0_MEMBER_1_MEMBER_0_MEMBER_0_MEMBER_1_FILL"/>
</g>

<g transform="matrix( 1, 0, 0, 1, 0,0) ">
<use xlink:href="#Layer0_0_MEMBER_1_MEMBER_0_MEMBER_1_FILL"/>
</g>

<g transform="matrix( 0.5625, 0, 0, 0.7158966064453125, 0.1,-12) ">
<use xlink:href="#Layer0_0_MEMBER_1_MEMBER_0_MEMBER_2_FILL"/>
</g>

<g transform="matrix( 1, 0, 0, 1, 0,0) ">
<use xlink:href="#Layer0_0_MEMBER_1_MEMBER_0_MEMBER_3_FILL"/>
</g>

<g transform="matrix( 0.509552001953125, 0, 0, 0.5099029541015625, 3.5,6.5) ">
<use xlink:href="#Layer0_0_MEMBER_1_MEMBER_0_MEMBER_4_FILL"/>
</g>

<g transform="matrix( 0.509552001953125, 0, 0, 0.5099029541015625, 3.5,7.25) ">
<use xlink:href="#Layer0_0_MEMBER_1_MEMBER_0_MEMBER_5_FILL"/>
</g>

<g transform="matrix( 0.509552001953125, 0, 0, 0.5099029541015625, 3.5,7.25) ">
<use xlink:href="#Layer0_0_MEMBER_1_MEMBER_0_MEMBER_6_FILL"/>
</g>

<g transform="matrix( 0.4608001708984375, 0, 0, 0.4608001708984375, 6.55,2.65) ">
<use xlink:href="#Layer0_0_MEMBER_2_FILL"/>
</g>

<g transform="matrix( 1, 0, 0, 1, 0,0) ">
<use xlink:href="#Layer0_0_MEMBER_3_FILL"/>
</g>
</g>
</svg>
